X: 1334
T: Charlie Kyle's No 10 Jig
B: australian traditional tunes wiki
M:6/8
L:1/8
R: Jig
Q: 3/8=100
K:A
V:1 
||e3|"A"cBAA2A|EAAA2A|c2de2c|A3B2c|
"E7"dcBB2B|GBBB2B|G2BG2F|E3e3|
"A"cBAA2A|EAAA2A|c2de2c|A3cde|
"D"f2d"A"e2c|"E7"d2B"A"c2A|"E7"B2G EFG|"A"A3efg||
|:"A"a3aba|"E7"g3e3|"D"f2g age|"A"e2cA2e|
a3aba|"E7"g3e3|"D"fga "E7"gab|1"A"a3efg:|2"A"a3z3||
% abcbook-tune_id 6342d53a804ccf13db311611


% abcbook-boost 0
% abcbook-tablature 
% abcbook-transpose 
% abcbook-lastupdated 1665324359838
% abcbook-soundfonts 
% abcbook-repeats 1
% NFF Book 2007

